X:47
T:Sir Charles Rant. Ru2.047
%%VWML:RutherfordVol2-2249-p24-0
F:http://www.vwml.org/record/RutherfordVol2/2249/p24
L:1/8
R:Rant
B:RUTHERFORD Complete Collection of 200 Country Dances Vol.2; 1759.
Z:vmp. Peter Dunk 2015
Q:3/8=100
K:G
G2G dBG|ecA dBG|G2G dBG|c3e3|G2G dBG|
ecA dBG|(B/c/d)B (A/B/c)A|G3G3::(e/f/g)e dBG|(e/f/g)e d3|
(e/f/g)e dBG|B3d3|(e/f/g)e dBG|\
(B/c/d)B A2c|(B/c/d)B (A/B/c)A|G3G3:|
W:
W:Foot it & right hands across with the 2d Cu: .|  foot it & left back again:|
W:Gallop down one Cu: up again & cast off .|. hands round all 6 :|
T:Lady Weymouth's Fancy. Ru2.048
M:6/8
L:1/8
B:RUTHERFORD Complete Collection of 200 Country Dances Vol.2; 1759.
Z:vmp. Peter Dunk 2015
Q:3/8=100
K:G
GBd gdB|ecA dBF|GBd gdB|cAF G3:|
|:trB>AB trc>Bc|dge dBG|trB>AB trc>Bc|dge d3:|
|:trB>AB cbc|BbB cbc|BAB gdB|cAF G3:|
W:
W:Foot it and cast off one Cu: .| cast up again :| Gallop
W:doen one Cu: .|. up again & cast off :||: Right & left :|
